X: 3
T: Rambling Pitchfork, The
Z: ceolachan
S: https://thesession.org/tunes/89#setting12627
R: jig
M: 6/8
L: 1/8
K: Dmaj
F3 AFF | dFF AFD | GFG ABc | ded cAG |FAF AFF | dFF AFD | GFG BAB | AFD D2 :|d2 e fed | ecA AFA | dcd efg | faf gfe |[1 dcd fed | ecA AGF | GFG BAB | AFD D2 :|[2 a2 f gfe | fed ecA | GFG BAB | AFD D2 |]
